!!!!SEGMENT: pl-kk--kk-i-15--021_anonim--tollite-portas.krn
!!!cenid: 16xx:1138
!!!COM: Anonim
!!!COM-rismID: pe30004985
!!!CDT:
!!!CNT:
!!!OTL: Tollite portas
!!!PDT:
!!!AGN: Sacred
!!!SMS-siglum: PL-Kk
!!!SMS-shelfmark: Kk.I.15
!!!SMS-shelfwork: 021 W
!!!SMS-variant:
!!!SMS-altvar:
!!!NIFC-rismSourceID: 1001147857
!!!NIFC-islandoraID: pl-kk:2631
!!!URL-pdf-islandora: https://repozytorium.nifc.pl/islandora/object/pl-kk%3A2631/datastream/PDF/view
!!!URL-scan: https://polish.musicsources.pl/pl/lokalizacje/galeria/rekopisy/5777 @EN{Scan on Polish Music Sources Website} @PL{Skany w portalu Dziedzictwo Muzyki Polskiej w otwartym dostępie}
!!!ONB-nifc: UWAGA: C (skan 0013-0014), A (skan 0030-0031), T (skan 0047-0048), B (skan 0065-0066). Następny utwór: Alleluia Prophetae sancti
!!!AIN: 1 alto 1 empty 1 tenor 1 vox
!!!key:
**kern	**text	**kern	**text	**kern	**text	**kern	**text
*part4	*part4	*part3	*part3	*part2	*part2	*part1	*part1
*staff4	*staff4	*staff3	*staff3	*staff2	*staff2	*staff1	*staff1
*Iempty	*	*Itenor	*	*Ialto	*	*Ivox	*
*I"Baſso	*	*I"Tenore.	*	*I"Alto	*	*I"Canto.	*
*I'B	*	*I'T	*	*I'A	*	*I'S	*
*clefF4	*	*clefC4	*	*clefC4	*	*clefC3	*
*k[]	*	*k[]	*	*k[]	*	*k[]	*
*C:	*	*C:	*	*C:	*	*C:	*
*M2/1	*	*M2/1	*	*M2/1	*	*M2/1	*
*met(C)	*	*met(C)	*	*met(C)	*	*met(C)	*
=1-	=1-	=1-	=1-	=1-	=1-	=1-	=1-
*	*	*lig	*	*lig	*	*	*
!	!	!LO:TX:t=P:problem=brak tekstu słownego na karcie 0047	!	!	!	!	!
1rD	.	1G	.	1G	Tol-	0r	.
*lig	*	*	*	*	*	*	*
1C	Tol-	1c	.	1c	.	.	.
*	*	*Xlig	*	*Xlig	*	*	*
=2-	=2-	=2-	=2-	=2-	=2-	=2-	=2-
*	*	*	*	*	*	*lig	*
1F	.	1A	.	1A	.	1c	Tol-
*Xlig	*	*	*	*	*	*	*
1D	.	2A/	.	2A/	-li-	1f	.
.	.	2.A/	.	2.A/	-te	.	.
*	*	*	*	*	*	*Xlig	*
=3-	=3-	=3-	=3-	=3-	=3-	=3-	=3-
1D	-li-	.	.	.	.	1d	.
.	.	4G/	.	4G/	.	.	.
.	.	2.B\	.	2.B\	.	.	.
2D/	-te	.	.	.	.	2d\	-li-
.	.	4A\	.	4A\	.	.	.
1F\	por-	1A\	.	1A\	.	1d\	-te
=4-	=4-	=4-	=4-	=4-	=4-	=4-	=4-
.	.	.	.	.	.	.	.
4E\	.	4G/	.	4G/	.	1f	por-
4D\	.	4F/	.	4F/	.	.	.
*custos:G	*	*	*	*	*	*	*
2F\	.	2A/	.	2A/	por-	.	.
!LO:LB:g=original	!	!	!	!	!	!	!
1G\	.	2.B\	.	2.B\	.	4e\	.
.	.	.	.	.	.	4d\	.
=5-	=5-	=5-	=5-	=5-	=5-	=5-	=5-
.	.	.	.	.	.	2e\	.
.	.	4A\	.	4A\	.	.	.
2F\	.	2.d\	.	2.d\	.	2f\	.
2.G\	.	.	.	.	.	1d	.
.	.	4c\	.	4c\	.	.	.
.	.	4B\	.	4B\	.	.	.
4F\	.	4A\	.	4A\	.	.	.
=6-	=6-	=6-	=6-	=6-	=6-	=6-	=6-
2E\	.	2G/	.	2G/	.	2c/	.
2D/	.	1A	.	1A	.	2.f\	.
2F\	.	.	.	.	.	.	.
.	.	.	.	.	.	4e\	.
2G\	.	1B\	.	1B\	.	2.d\	.
=7-	=7-	=7-	=7-	=7-	=7-	=7-	=7-
1E	.	.	.	.	.	.	.
.	.	.	.	.	.	4c/	.
.	.	2c\	.	2c\	.	1g	.
1D	-taſ	1A	.	1A	-tas	.	.
.	.	.	.	.	.	2f\	.
=8-	=8-	=8-	=8-	=8-	=8-	=8-	=8-
*	*	*	*	*lig	*	*	*
2GG/	Tol-	2G/	.	1G	Tol-	2g\	-tas
*lig	*	*	*	*	*	*	*
1C	.	1g	.	.	.	1g	por-
.	.	.	.	1c	.	.	.
1AA/	.	2f\	.	.	.	2f\	.
*Xlig	*	*	*	*Xlig	*	*	*
=9-	=9-	=9-	=9-	=9-	=9-	=9-	=9-
.	.	2.e\	.	1A	.	2.e\	.
2AA/	-li-	.	.	.	.	.	.
.	.	4d\	.	.	.	4d\	.
2AA/	-te	4c\	.	2A/	-li-	4c\	.
.	.	4B\	.	.	.	4B\	.
1C/	por-	1e\	.	1A\	-te	1e\	.
=10-	=10-	=10-	=10-	=10-	=10-	=10-	=10-
.	.	.	.	.	.	.	.
4BB/	.	4d\	.	1c	por-	4d\	.
4AA/	.	4B\	.	.	.	4c\	.
!	!	!LO:LB:g=original	!	!	!	!	!
2C/	.	2e\	.	.	.	2e\	.
2D/	.	2f\	.	4B\	.	2f\	.
.	.	.	.	4A\	.	.	.
!	!	!	!	!LO:LB:g=original	!	!LO:LB:g=original	!
=11-	=11-	=11-	=11-	=11-	=11-	=11-	=11-
2BB/	.	2d\	.	2B\	.	2d\	.
2.AA/	.	1e	.	2c\	.	1e	.
.	.	.	.	1A	.	.	.
4BB/	.	.	.	.	.	.	.
4C/	.	4d\	.	.	.	4d\	.
4D/	.	4c\	.	.	.	4c\	.
=12-	=12-	=12-	=12-	=12-	=12-	=12-	=12-
2E\	.	2B\	.	2G/	.	2B/	.
2AA/	.	1e	.	2.c\	.	1e	.
2C/	.	.	.	.	.	.	.
.	.	.	.	4B\	.	.	.
2D/	.	1d\	.	1A\	.	1d\	-tas
=13-	=13-	=13-	=13-	=13-	=13-	=13-	=13-
1E	.	.	.	.	.	.	.
.	.	2c\	.	2G/	.	2r	.
*custos:F	*	*	*	*	*	*	*
*	*	*	*	*	*	*lig	*
1D	-tas	2d\	.	1.A	-tas	1f	prin-
.	.	1f\	.	.	.	.	.
!LO:LB:g=original	!	!	!	!	!	!	!
=14-	=14-	=14-	=14-	=14-	=14-	=14-	=14-
*lig	*	*	*	*	*	*	*
1F	Prin-	.	.	.	.	1c	.
.	.	2.d\	.	2.d\	por-	.	.
*	*	*	*	*	*	*Xlig	*
1D	.	.	.	.	.	2.f\	.
.	.	4e\	.	4e\	.	.	.
.	.	2.f\	.	2.f\	.	.	.
.	.	.	.	.	.	4g\	.
*Xlig	*	*	*	*	*	*	*
=15-	=15-	=15-	=15-	=15-	=15-	=15-	=15-
*lig	*	*	*	*	*	*	*
1F	.	.	.	.	.	1a	.
.	.	4e\	.	4e\	.	.	.
.	.	4d\	.	4d\	.	.	.
.	.	4c\	.	4c\	.	.	.
!	!	!LO:TX:a:t=P:problem=rozdzielacz słów	!	!	!	!	!
1G	.	1B,<	.	1B	.	1g	.
*Xlig	*	*	*	*	*	*	*
=16-	=16-	=16-	=16-	=16-	=16-	=16-	=16-
1A	.	1c	.	1A	-[tas]	2e\	.
.	.	.	.	.	.	2.f\	.
*lig	*	*lig	*	*	*	*	*
1F	-ci-	1A	.	2A\	prin-	.	.
.	.	.	.	.	.	4e\	.
.	.	.	.	2D/	-ci-	2.d\	.
=17-	=17-	=17-	=17-	=17-	=17-	=17-	=17-
1E	.	1c	.	2E/	.	.	.
.	.	.	.	.	.	4c/	.
.	.	.	.	1G	-pes	1c	.
*Xlig	*	*Xlig	*	*	*	*	*
1D	.	0d	.	.	.	.	.
.	.	.	.	4F/	.	4B/	.
.	.	.	.	4E/	.	4A/	.
=18-	=18-	=18-	=18-	=18-	=18-	=18-	=18-
*lig	*	*	*	*	*	*	*
1D	-pes	.	.	1F	.	1B	-ci-
1C	.	1e	.	1G	.	0c	-pes
*Xlig	*	*	*	*	*	*	*
=19-	=19-	=19-	=19-	=19-	=19-	=19-	=19-
*lig	*	*lig	*	*	*	*	*
1F	.	1c	.	2F/	.	.	.
.	.	.	.	2A/	.	.	.
1D	.	1B	.	4G/	.	1d	.
.	.	.	.	4F/	.	.	.
.	.	.	.	1E/	.	.	.
*Xlig	*	*Xlig	*	*	*	*	*
=20-	=20-	=20-	=20-	=20-	=20-	=20-	=20-
1C	.	0A	.	.	.	0e	.
.	.	.	.	2rD	.	.	.
1C	ue-	.	.	2E/	prin-	.	.
.	.	.	.	2D/	-ci-	.	.
=21-	=21-	=21-	=21-	=21-	=21-	=21-	=21-
2BB/	.	2G/	.	2E/	.	2r	.
!	!	!	!	!LO:TX:a:t=P:problem=kropka w następnym systemie	!	!	!
2C/	.	1c	.	2.F/	-pes	[2c/	.
1D	.	.	.	.	.	2c/]	.
!	!	!	!	!LO:LB:g=original	!	!	!
.	.	.	.	4D/	.	.	.
*	*	*custos:c	*	*	*	*	*
.	.	2B\	.	4E/	.	2B/	.
.	.	.	.	4C/	.	.	.
!	!	!LO:PB:g=original	!	!	!	!	!
=22-	=22-	=22-	=22-	=22-	=22-	=22-	=22-
*	*	*	*	*	*	*custos:c	*
0C	.	2A\	.	2c\	.	2A/	.
!	!	!	!	!	!	!LO:LB:g=original	!
.	.	2.c\	.	2A\	.	2.c\	.
.	.	.	.	2G/	.	.	.
.	.	4d\	.	.	.	4d\	.
.	.	2e\	.	1G/	.	2e\	.
=23-	=23-	=23-	=23-	=23-	=23-	=23-	=23-
[<1D	.	2.d\	.	.	.	2.d\	.
.	.	.	.	4F/	.	.	.
.	.	8c\L	.	4E/	.	4c\	.
.	.	8B\J	.	.	.	.	.
*lig	*	*	*	*	*	*	*
1D]	.	1A	.	1F	ue-	1.d	.
=24-	=24-	=24-	=24-	=24-	=24-	=24-	=24-
1BB	.	1G	.	1G	.	.	.
.	.	.	.	.	.	4c/	.
.	.	.	.	.	.	4B/	.
*Xlig	*	*	*	*	*	*	*
1C	.	2A/	ue-	1A	.	2A/	.
.	.	2.e\	.	.	.	2.e\	ue-
=25-	=25-	=25-	=25-	=25-	=25-	=25-	=25-
1D	.	.	.	1B	.	.	.
.	.	4d\	.	.	.	4d\	.
.	.	2d\	.	.	.	2d\	.
2E\	.	1c	-ſtras	2c\	.	0c	.
1F\	.	.	.	1A\	.	.	.
=26-	=26-	=26-	=26-	=26-	=26-	=26-	=26-
.	.	2A/	prin-	.	.	.	.
2E\	.	1G	.	2G/	.	.	.
*	*	*	*	*lig	*	*	*
1D	.	.	.	1A	.	1d	.
.	.	2F/	-ci-	.	.	.	.
=27-	=27-	=27-	=27-	=27-	=27-	=27-	=27-
1C	-ſtras	1G	-pes	1c	.	1e	.
*	*	*	*	*Xlig	*	*	*
1rD	.	2.D/	ue-	0d	.	[0f	.
.	.	4E/	.	.	.	.	.
=28-	=28-	=28-	=28-	=28-	=28-	=28-	=28-
*custos:F	*	*	*	*	*	*	*
1D	ue-	4F/	.	.	.	.	.
.	.	4G/	.	.	.	.	.
.	.	4A/	.	.	.	.	.
.	.	4D/	.	.	.	.	.
!LO:LB:g=original	!	!	!	!	!	!	!
0F	.	2.A\	.	1c	.	0f]	.
.	.	4B\	.	.	.	.	.
=29-	=29-	=29-	=29-	=29-	=29-	=29-	=29-
.	.	2.c\	.	2A/	.	.	.
.	.	.	.	1c	.	.	.
.	.	4d\	.	.	.	.	.
2E\	.	2e\	.	.	.	2g\	.
2F\	.	1d\	.	4B\	.	1f\	.
.	.	.	.	4A\	.	.	.
=30-	=30-	=30-	=30-	=30-	=30-	=30-	=30-
1G	.	.	.	1B	.	.	.
.	.	2B\	.	.	.	2e\	.
1F	.	1c	.	1A	-ſtras	1f	.
=31-	=31-	=31-	=31-	=31-	=31-	=31-	=31-
2D/	.	2d\	.	2d\	ue-	2f\	.
1F	.	4c\	.	4c\	.	4e\	.
*	*	*custos:A	*	*	*	*	*
.	.	4B\	.	4B\	.	4d\	.
!	!	!LO:LB:g=original	!	!	!	!	!
.	.	4A/	.	4A/	.	2c/	.
.	.	4G/	.	4G/	.	.	.
4E\	.	1A\	.	1A\	.	1d\	.
4D\	.	.	.	.	.	.	.
=32-	=32-	=32-	=32-	=32-	=32-	=32-	=32-
1E	.	.	.	.	.	.	.
*	*	*	*	*custos:A	*	*	*
.	.	2G/	.	2G/	.	2c/	.
!	!	!	!	!LO:LB:g=original	!	!	!
1.D	.	2A/	-ſtras	0A	-ſtras	2d\	.
.	.	1f\	ue-	.	.	1f\	.
=33-	=33-	=33-	=33-	=33-	=33-	=33-	=33-
.	.	.	.	.	.	.	.
2C/	.	1e	.	.	.	1e	.
1D	.	.	.	1r	.	.	.
*	*	*	*	*	*	*custos:e	*
.	.	2d\	.	.	.	2d\	.
!	!	!	!	!	!	!LO:LB:g=original	!
=34-	=34-	=34-	=34-	=34-	=34-	=34-	=34-
1AA	-ſtras	2e\	-ſtras	1c	et	4e\	.
.	.	.	.	.	.	4d\	.
.	.	2rc	.	.	.	4c/	.
.	.	.	.	.	.	4B/	.
1F	et	1F	et	1c	e-	1A	-ſtras
=35-	=35-	=35-	=35-	=35-	=35-	=35-	=35-
*	*	*	*	*lig	*	*	*
1F	e-	1F	e-	1c	-le-	2rA	.
.	.	.	.	.	.	1A	et
*lig	*	*lig	*	*	*	*	*
1F	-le-	1F	-le-	1d	.	.	.
.	.	.	.	.	.	2A/	e-
*	*	*	*	*Xlig	*	*	*
=36-	=36-	=36-	=36-	=36-	=36-	=36-	=36-
1G	.	1G	.	1d	-ua-	2.B/	-le-
.	.	.	.	.	.	4c/	.
*Xlig	*	*Xlig	*	*	*	*	*
*lig	*	*lig	*	*lig	*	*	*
1G	-ua-	1G	-ua-	1B	.	1d	.
=37-	=37-	=37-	=37-	=37-	=37-	=37-	=37-
*	*	*	*	*col	*	*	*
1E	.	1E	.	2.c\	.	1G	.
*Xlig	*	*Xlig	*	*Xlig	*	*	*
.	.	.	.	4B\	.	.	.
*	*	*	*	*Xcol	*	*	*
2.F\	.	2.F/	.	2A/	.	2A/	.
.	.	.	.	2G/	.	2.B/	.
4E\	.	4E/	.	.	.	.	.
=38-	=38-	=38-	=38-	=38-	=38-	=38-	=38-
2D/	.	2D/	.	2A/	.	.	.
.	.	.	.	.	.	4A/	.
2C/	.	2C/	.	2c\	.	1A	.
2D/	.	2D/	.	1B	-mi-	.	.
2E\	.	2E/	.	.	.	2G/	.
=39-	=39-	=39-	=39-	=39-	=39-	=39-	=39-
1F	.	1F	.	1A	-ne	4A/	[va]-
.	.	.	.	.	.	4B/	.
.	.	.	.	.	.	4c\	.
.	.	.	.	.	.	4d\	.
*	*	*	*	*lig	*	*	*
1E	-mi-	1E	-mi-	1c	por-	1e	-mi-
=40-	=40-	=40-	=40-	=40-	=40-	=40-	=40-
!LO:TX:a:t=P:problem=rozdzielacz słów	!	!	!	!	!	!	!
1D,<	-ne	2D/	-ni	1A	.	0.f	-ni
.	.	2d\	por-	.	.	.	.
*lig	*	*lig	*	*Xlig	*	*	*
*	*	*	*	*lig	*	*	*
1F	por-	1c	.	1c	.	.	.
=41-	=41-	=41-	=41-	=41-	=41-	=41-	=41-
*custos:F	*	*	*	*	*	*	*
1D	.	1d	.	1d	.	.	.
*Xlig	*	*Xlig	*	*Xlig	*	*	*
!LO:LB:g=original	!	!	!	!	!	!	!
*lig	*	*	*	*	*	*	*
1F	.	1A	.	1A	.	1f	por-
=42-	=42-	=42-	=42-	=42-	=42-	=42-	=42-
1G	.	0d	.	0d	.	2d\	.
.	.	.	.	.	.	1g	.
*Xlig	*	*	*	*	*	*	*
1D	.	.	.	.	.	.	.
.	.	.	.	.	.	2f\	.
=43-	=43-	=43-	=43-	=43-	=43-	=43-	=43-
1G	.	1e	.	1e	.	2.g\	.
.	.	.	.	.	.	4f\	.
!	!	!LO:LB:g=original	!	!	!	!	!
2A\	.	2.c\	.	2.c\	tae	2e\	.
1F\	.	.	.	.	.	2f\	.
.	.	4B\	.	4B\	.	.	.
=44-	=44-	=44-	=44-	=44-	=44-	=44-	=44-
.	.	2A/	.	2A/	.	2d/	.
*	*	*	*	*	*	*custos:B	*
2E\	.	1G	.	2rF	.	1c	.
1D	.	.	.	1D	ae-	.	.
!	!	!	!	!	!	!LO:PB:g=original	!
.	.	2F/	.	.	.	2B/	.
=45-	=45-	=45-	=45-	=45-	=45-	=45-	=45-
!	!	!LO:SIC:v:l:s=-tae	!	!	!	!	!
2C/	.	1G	-te	2E/	-ter-	0c	-tae
1G	.	.	.	1G	-na-	.	.
.	.	1A	ae-	.	.	.	.
4F\	.	.	.	4F/	.	.	.
4E\	.	.	.	4E/	.	.	.
!	!	!	!	!LO:LB:g=original	!	!	!
=46-	=46-	=46-	=46-	=46-	=46-	=46-	=46-
*	*	*lig	*	*	*	*	*
1F	.	1A	-ter-	1F	.	1r	.
1G	-tae	1G	.	1G	les	2.g\	ae-
.	.	.	.	.	.	4e\	-ter-
*	*	*Xlig	*	*	*	*	*
=47-	=47-	=47-	=47-	=47-	=47-	=47-	=47-
1D	ae-	0A	-na-	1d	ae-	2f\	.
.	.	.	.	.	.	2.g\	.
*lig	*	*	*	*	*	*	*
1D	-ter-	.	.	1d	-ter-	.	.
.	.	.	.	.	.	4e\	.
.	.	.	.	.	.	2f\	.
=48-	=48-	=48-	=48-	=48-	=48-	=48-	=48-
1C	.	1c	.	1e	.	1g	.
*Xlig	*	*lig	*	*	*	*	*
2D/	.	1A	.	2.d\	-na-	0f	.
[2F\	-na-	.	.	.	.	.	.
.	.	.	.	8c\L	.	.	.
.	.	.	.	8B\J	.	.	.
=49-	=49-	=49-	=49-	=49-	=49-	=49-	=49-
!	!	!	!	!LO:TX:t=P:problem=kreska pseudotaktowa	!	!	!
2F\]	.	1c	.	1A	.	.	.
4E\	.	.	.	.	.	.	.
4D\	.	.	.	.	.	.	.
*	*	*Xlig	*	*	*	*	*
*	*	*lig	*	*	*	*	*
2E\	.	1c	-les	2G/	.	2g\	.
*	*	*	*	*lig	*	*	*
2.F\	.	.	.	1A\	.	1f\	.
=50-	=50-	=50-	=50-	=50-	=50-	=50-	=50-
.	.	1A	.	.	.	.	.
4G\	.	.	.	.	.	.	.
*	*	*	*	*col	*	*	*
2.A\	.	.	.	2.c\	.	1e	.
*	*	*Xlig	*	*Xlig	*	*	*
*	*	*lig	*	*	*	*	*
.	.	1c	.	.	.	.	.
4B\	.	.	.	4B\	.	.	.
*	*	*	*	*Xcol	*	*	*
!	!	!	!	!LO:TX:t=P:problem=kreska pseudotaktowa	!	!	!
1c\	.	.	.	2A/	.	2f\	.
=51-	=51-	=51-	=51-	=51-	=51-	=51-	=51-
.	.	1d	.	1G	.	1g	.
2B\	.	.	.	.	.	.	.
*	*	*Xlig	*	*	*	*	*
2c\	.	1c	.	1C	-les	2.e\	.
4B\	.	.	.	.	.	.	.
4A\	.	.	.	.	.	4f\	.
=52-	=52-	=52-	=52-	=52-	=52-	=52-	=52-
4B\	.	2d\	.	2rD	.	4g\	.
4A\	.	.	.	.	.	4c\	.
*	*	*	*	*	*ij	*	*
4G\	.	[2e\	.	2.C/	ae-	1g	-na-
4F\	.	.	.	.	.	.	.
4E\	.	2e\]	.	.	.	.	.
4D\	.	.	.	4D/	.	.	.
*custos:E	*	*	*	*	*	*	*
1G\	.	4d\	.	4E/	.	4f\	.
.	.	4c\	.	4F/	.	4e\	.
=53-	=53-	=53-	=53-	=53-	=53-	=53-	=53-
.	.	2B\	.	4G/	ter-	2d\	.
.	.	.	.	4C/	.	.	.
!LO:PB:g=original	!	!	!	!	!	!	!
2E\	.	2c\	.	1c	-na-	2g\	.
2F\	.	1d	.	.	.	1f	.
2G\	-les	.	.	2B\	.	.	.
=54-	=54-	=54-	=54-	=54-	=54-	=54-	=54-
2A\	et	1c	.	1c	-les	2e\	.
*	*	*	*	*	*Xij	*	*
1F	in-	.	.	.	.	2f\	.
.	.	2r	.	2r	.	1g	.
2E\	-tro-	1c\	et	1c\	et	.	.
=55-	=55-	=55-	=55-	=55-	=55-	=55-	=55-
2F\	.	.	.	.	.	2f\	.
2G\	.	2B\	in-	2B/	in-	2d\	-les
!	!	!	!	!	!	!LO:LB:g=original	!
2A\	i-	2.A\	-tro-	2.c\	-tro-	2.c\	et
2B\	.	.	.	.	.	.	.
*	*	*custos:c	*	*	*	*	*
.	.	4B\	.	4d\	.	4d\	.
!	!	!LO:LB:g=original	!	!	!	!	!
=56-	=56-	=56-	=56-	=56-	=56-	=56-	=56-
2.c\	.	2.c\	-i-	2.e\	.	2.e\	.
4B\	.	4B\	.	4d\	.	4d\	.
2A\	.	4A/	.	2c\	.	2c/	.
.	.	4G/	-bit	.	.	.	.
2G\	.	1g\	in-	1B\	-i-	1g\	in-
=57-	=57-	=57-	=57-	=57-	=57-	=57-	=57-
2E\	.	.	.	.	.	.	.
!	!	!	!	!LO:LB:g=original	!	!	!
2F\	.	2f\	-tro-	1d	.	2f\	-tro-
2G\	.	1e	.	.	.	1e	.
2A\	.	.	.	2c\	.	.	.
=58-	=58-	=58-	=58-	=58-	=58-	=58-	=58-
2D\	.	2f\	.	2d\	.	2f\	.
2E\	.	2e\	.	1c	.	2e\	.
2F\	.	1d	.	.	.	1d	.
2G\	.	.	.	2B\	.	.	.
=59-	=59-	=59-	=59-	=59-	=59-	=59-	=59-
2C/	.	2c\	.	1A	.	2c/	.
1D	-bit	1A	-i-	.	.	1A	-i-
.	.	.	.	2A/	-bit	.	.
2E\	.	2G/	-bit	1c\	.	2G/	-bit
=60-	=60-	=60-	=60-	=60-	=60-	=60-	=60-
2.F\	.	1F	.	.	.	1F	.
.	.	.	.	2A/	.	.	.
4E\	.	.	.	.	.	.	.
2C/	.	2E/	.	2G/	.	2E/	.
2.c\	.	2.e\	et	2.A/	.	2.e\	in-
=61-	=61-	=61-	=61-	=61-	=61-	=61-	=61-
.	.	.	.	.	.	.	.
4B\	.	4d\	.	4B\	.	4d\	.
4A\	.	2e\	.	2c\	.	2e\	.
4G\	.	.	.	.	.	.	.
*custos:E	*	*	*	*	*	*	*
2F\	.	2A/	in-	2A/	.	2.f\	-tro-
!LO:LB:g=original	!	!	!	!	!	!	!
2E\	.	1c\	-tro-	1c\	.	.	.
.	.	.	.	.	.	4g\	.
=62-	=62-	=62-	=62-	=62-	=62-	=62-	=62-
1D	.	.	.	.	.	2a\	.
.	.	2d\	.	4B\	.	4g\	.
.	.	.	.	4A\	.	4f\	.
*	*	*	*	*lig	*	*	*
2C/	.	1e	.	1c	.	2e\	.
2AA/	.	.	.	.	.	2c\	.
=63-	=63-	=63-	=63-	=63-	=63-	=63-	=63-
2BB/	.	2d\	.	1G	.	2d\	.
2C/	.	2c\	.	.	.	2e\	.
*	*	*	*	*Xlig	*	*	*
1FF	.	1c	.	1F	.	2f\	-i-
.	.	.	.	.	.	2F/	-bit
=64-	=64-	=64-	=64-	=64-	=64-	=64-	=64-
*	*	*	*	*lig	*	*	*
2r	.	2A/	.	1F	rex	2A/	.
1F	rex	1d	.	.	.	1d	.
.	.	.	.	1G	.	.	.
*	*	*	*	*	*	*custos:d	*
2E\	.	2c\	-i-	.	.	2c\	.
*	*	*	*	*Xlig	*	*	*
!	!	!	!	!	!	!LO:LB:g=original	!
=65-	=65-	=65-	=65-	=65-	=65-	=65-	=65-
1D	.	1d	-bit	1A	.	2d\	.
.	.	.	.	.	.	1f	rex
*	*	*	*	*lig	*	*	*
1C	.	2.G/	rex	1c	.	.	.
.	.	.	.	.	.	2e\	.
.	.	4A\	.	.	.	.	.
=66-	=66-	=66-	=66-	=66-	=66-	=66-	=66-
2G\	.	4B\	.	1B	.	2d\	.
.	.	4c\	.	.	.	.	.
2GG/	.	2.d\	.	.	.	1g	.
*	*	*	*	*Xlig	*	*	*
1D	.	.	.	1A	.	.	.
*	*	*custos:d	*	*	*	*	*
.	.	4c\	.	.	.	.	.
!	!	!LO:LB:g=original	!	!	!	!	!
.	.	2d\	.	.	.	2f\	.
=67-	=67-	=67-	=67-	=67-	=67-	=67-	=67-
2C/	.	2G/	glo-	1c	.	2e\	.
1c	glor-	4A/	.	.	.	2c/	.
.	.	4G/	.	.	.	.	.
*	*	*	*	*lig	*	*	*
.	.	1d	.	1G	.	2.g\	.
2B\	.	.	.	.	.	.	.
.	.	.	.	.	.	4f\	.
=68-	=68-	=68-	=68-	=68-	=68-	=68-	=68-
2.A\	.	2.c\	.	1A	.	4e\	.
.	.	.	.	.	.	4d\	.
.	.	.	.	.	.	2.c/	.
4G\	.	4B\	.	.	.	.	.
*	*	*	*	*Xlig	*	*	*
*	*	*	*	*lig	*	*	*
2F\	.	2A/	.	1c	glo-	.	.
.	.	.	.	.	.	4d\	.
2E\	.	1G/	.	.	.	2e\	.
=69-	=69-	=69-	=69-	=69-	=69-	=69-	=69-
1D	-ri-	.	.	1A	.	1f	.
.	.	2F/	-ri-	.	.	.	.
*	*	*	*	*Xlig	*	*	*
*	*	*	*	*lig	*	*	*
1C	-ae	1G	-ae	1c	.	1e	.
=70-	=70-	=70-	=70-	=70-	=70-	=70-	=70-
*	*	*	*	*custos:d	*	*	*
1G	Rex	2d\	glo-	1d	.	2r	.
.	.	1c	.	.	.	2g\	glo-
*	*	*	*	*Xlig	*	*	*
!	!	!	!	!LO:PB:g=original	!	!	!
!	!	!	!	!LO:TX:t=P:problem=fragment nieczytelny  w tt. 70-71	!	!	!
2F\	.	.	.	1cyy	.	2a\	.
2G\	.	2B\	.	.	.	2.g\	.
=71-	=71-	=71-	=71-	=71-	=71-	=71-	=71-
2E\	.	1c	.	1dyy	.	.	.
.	.	.	.	.	.	4f\	.
2C/	.	.	.	.	.	2e\	.
*lig	*	*	*	*lig	*	*	*
1G	glo-	1d	.	1B	.	2d\	.
.	.	.	.	.	.	1g\	.
=72-	=72-	=72-	=72-	=72-	=72-	=72-	=72-
1C	.	1e	.	1c	.	.	.
.	.	.	.	.	.	2g\	.
*Xlig	*	*	*	*Xlig	*	*	*
*custos:GG	*	*	*	*	*	*	*
!	!	!LO:TX:t=P:problem=brak dźwięku	!	!	!	!	!
*	*	*	*	*lig	*	*	*
1D	.	1ryy	.	1A	ri-	1a	.
!LO:LB:g=original	!	!	!	!	!	!	!
=73-	=73-	=73-	=73-	=73-	=73-	=73-	=73-
1GG	-ri-	1d	-ri-	1B	.	1g	-ri-
*	*	*	*	*Xlig	*	*	*
1Cl;;	-ae	1cl;;	-ae	1Gl;;	-ae	1el;;	-ae
!	!	!LO:LB:g=original	!	!	!	!LO:LB:g=original	!
=74||	=74||	=74||	=74||	=74||	=74||	=74||	=74||
*M2/1	*	*M2/1	*	*M2/1	*	*M2/1	*
*met(C)	*	*met(C)	*	*met(C)	*	*met(C)	*
1.D	Quis	1A	Quis	1A	Quis	1A	Quis
*	*	*	*	*lig	*	*	*
.	.	2F/	a-	1A	a-	2F/	a-
2.F\	a-	2.A/	-ſcen-	.	.	2.A/	-ſcen-
=75-	=75-	=75-	=75-	=75-	=75-	=75-	=75-
.	.	.	.	1c	.	.	.
4E\	-ſcen-	4G/	.	.	.	4G/	.
4D\	.	4F/	.	.	.	4F/	.
4C\	.	4E/	.	.	.	4E/	.
*	*	*	*	*Xlig	*	*	*
1D	.	1F	-det	1B	-ſcen-	1F	-det
=76-	=76-	=76-	=76-	=76-	=76-	=76-	=76-
*	*	*	*	*lig	*	*	*
1C	-det	2rF	.	1c	-det	2rA	.
.	.	2G/	in	.	.	2G/	in
2r	.	2F/	mon-	1d	.	2F/	mon-
2G\	in	2G/	-tem	.	.	2G/	-te
*	*	*	*	*Xlig	*	*	*
=77-	=77-	=77-	=77-	=77-	=77-	=77-	=77-
2F\	mon-	2A/	.	1d	in	2A/	.
2G\	-tem	2.B\	.	.	.	2.B/	.
2E/	in-	.	.	1d	mon-	.	.
.	.	4A\	.	.	.	4A/	.
2.B\	mon-	2G/	.	.	.	2G/	.
=78-	=78-	=78-	=78-	=78-	=78-	=78-	=78-
.	.	2F/	.	1d	-te	2F/	.
4A\	.	.	.	.	.	.	.
1G	.	1B	do-	.	.	1B	Do-
*	*	*	*	*lig	*	*	*
.	.	.	.	1d	Do-	.	.
2F\	.	2A/	.	.	.	2A/	.
=79-	=79-	=79-	=79-	=79-	=79-	=79-	=79-
2E\	.	2G/	.	1c	.	2G/	.
2F\	.	1c	.	.	.	1c	.
*	*	*	*	*Xlig	*	*	*
*	*	*	*	*lig	*	*	*
1D	.	.	.	1d	.	.	.
.	.	2B\	.	.	.	2B/	.
=80-	=80-	=80-	=80-	=80-	=80-	=80-	=80-
1C	-tem	1c	.	1e	.	1c	.
*	*	*	*	*Xlig	*	*	*
*	*	*	*	*lig	*	*	*
2rBB	.	2d\	.	1f	.	2d\	.
2D/	Do-	1f\	.	.	.	1f\	.
=81-	=81-	=81-	=81-	=81-	=81-	=81-	=81-
2F\	.	.	.	1d	.	.	.
!LO:LB:g=original	!	!	!	!	!	!	!
2G\	.	2d\	.	.	.	2d\	.
*	*	*	*	*Xlig	*	*	*
!	!	!	!	!	!	!LO:LB:g=original	!
2C/	.	2e\	.	2c\	.	2e\	.
2.F\	.	2f\	.	1c\	-mi-	2f\	.
!	!	!LO:LB:g=original	!	!	!	!	!
=82-	=82-	=82-	=82-	=82-	=82-	=82-	=82-
.	.	4F/	.	.	.	4F/	.
4E\	.	4G/	.	.	.	4G/	.
2D/	.	4A/	.	2d\	-ni	4A/	.
.	.	4B/	.	.	.	4B/	.
!	!	!	!	!LO:LB:g=original	!	!	!
2C/	.	2c\	.	2e\	.	2c/	.
2BB/	.	2d\	.	2d\	.	2d/	.
=83-	=83-	=83-	=83-	=83-	=83-	=83-	=83-
2AA/	.	1c	.	2e\	.	1c	.
*	*	*	*	*lig	*	*	*
2.A\	.	.	.	1e	.	.	.
.	.	1.A	.	.	.	1.A	-mi-
4G\	.	.	.	.	.	.	.
2F\	.	.	.	1f\	.	.	.
*	*	*	*	*Xlig	*	*	*
=84-	=84-	=84-	=84-	=84-	=84-	=84-	=84-
2D/	.	.	.	.	.	.	.
2E/	.	2G/	-mi-	2e\	.	2G/	-ni
2F\	.	2A/	-ni	2c\	.	2A/	.
*	*	*	*	*lig	*	*	*
4C\	.	2c\	.	1e\	Do-	2c/	.
4D\	.	.	.	.	.	.	.
=85-	=85-	=85-	=85-	=85-	=85-	=85-	=85-
4E\	.	1B	.	.	.	1B	.
4F\	.	.	.	.	.	.	.
2G\	.	.	.	1d	.	.	.
2.D/	.	2A/	.	.	.	2A/	.
*	*	*	*	*Xlig	*	*	*
.	.	2.d\	.	1f\	.	2.d\	.
4E\	.	.	.	.	.	.	.
=86-	=86-	=86-	=86-	=86-	=86-	=86-	=86-
4F\	.	.	.	.	.	.	.
4G\	.	4c\	.	.	.	4c/	.
2A\	.	2c\	.	2e\	.	2c/	.
2B\	.	2.f\	.	2d\	.	2.f\	.
2F\	.	.	.	1f\	.	.	.
.	.	4e\	.	.	.	4e\	.
=87-	=87-	=87-	=87-	=87-	=87-	=87-	=87-
1B	-mi-	4d\	.	.	.	4d\	.
.	.	4c\	.	.	.	4c\	.
.	.	1d	.	4e\	.	1d	.
.	.	.	.	4d\	.	.	.
1A	-ni	.	.	1e	-mi-	.	.
.	.	2c\	.	.	.	2c/	.
=88-	=88-	=88-	=88-	=88-	=88-	=88-	=88-
2rF	.	2d\	.	1d	-ni	2d\	.
1G	aut	1g	aut	.	.	1g	aut
.	.	.	.	1r	.	.	.
1B\	quis	4f\	.	.	.	4f\	.
.	.	4e\	.	.	.	4e\	.
=89-	=89-	=89-	=89-	=89-	=89-	=89-	=89-
.	.	2f\	.	1d	aut	1d	quis
2G\	.	2g\	.	.	.	.	.
!	!	!	!	!	!	!LO:LB:g=original	!
*lig	*	*	*	*lig	*	*lig	*
1A	.	2c\	quis	1f	quis	1f	Sta-
.	.	1f\	Sta-	.	.	.	.
=90-	=90-	=90-	=90-	=90-	=90-	=90-	=90-
1B	.	.	.	1d	.	1d	.
.	.	4e\	.	.	.	.	.
.	.	4d\	.	.	.	.	.
*Xlig	*	*	*	*Xlig	*	*Xlig	*
!LO:LB:g=original	!	!LO:LB:g=original	!	!	!	!	!
1A	Sta-	1c	-bit	2e\	.	2e\	.
.	.	.	.	1f\	.	1f\	.
=91-	=91-	=91-	=91-	=91-	=91-	=91-	=91-
1G	.	0r	.	.	.	.	.
.	.	.	.	2e\	.	2e\	.
1G	-bit	.	.	1d	Sta-	2d\	-bit
.	.	.	.	.	.	2rA	.
=92-	=92-	=92-	=92-	=92-	=92-	=92-	=92-
!	!	!	!	!LO:TX:t=P:problem=kreska pseudotaktowa	!	!	!
1rA	.	2rc	.	1d	-bit	1d	in
.	.	2d\	in	.	.	.	.
!	!	!	!	!LO:TX:t=P:problem=skreślony fragment	!	!	!
!	!	!	!	!LO:LB:g=original	!	!	!
1G	in	2e\	lo-	2rc	.	2e\	lo-
.	.	2d\	-co	2d\	in	2d\	-co
=93-	=93-	=93-	=93-	=93-	=93-	=93-	=93-
1G	lo-	2.g\	San-	2e\	lo-	2g\	San-
.	.	.	.	2d\	-co	2f\	.
.	.	4f\	.	.	.	.	.
1G	-co	2e\	.	2.g\	.	2e\	.
.	.	2d\	.	.	.	2d\	.
.	.	.	.	4f\	.	.	.
=94-	=94-	=94-	=94-	=94-	=94-	=94-	=94-
1G	San-	2.g\	.	2e\	.	2.g\	.
.	.	.	.	2d\	.	.	.
.	.	4f\	.	.	.	4f\	.
*lig	*	*	*	*	*	*	*
1G	-cto	2e\	.	1g	San-	2e\	.
.	.	2d\	.	.	.	2d\	.
=95-	=95-	=95-	=95-	=95-	=95-	=95-	=95-
1A	.	1c	-cto	2f\	.	1c	-cto
.	.	.	.	1e	-cto	.	.
*Xlig	*	*	*	*	*	*	*
*lig	*	*	*	*	*	*	*
1A	e-	2r	.	.	.	2rA	.
.	.	2c\	in	4d\	.	2c/	in
.	.	.	.	4c\	.	.	.
=96-	=96-	=96-	=96-	=96-	=96-	=96-	=96-
1F	.	1f	lo-	1d	.	1f	lo-
*Xlig	*	*	*	*	*	*	*
1A	.	2.e\	-co	1c	.	2.e\	-co
.	.	4f\	.	.	.	4f\	.
=97-	=97-	=97-	=97-	=97-	=97-	=97-	=97-
2G\	.	2g\	.	2B\	.	2g\	.
1F	.	1c	San-	2.A/	.	1c	.
.	.	.	.	4G/	.	.	.
2D/	.	2.d\	-cto	4F/	.	2.d\	San-
.	.	.	.	4E/	.	.	.
=98-	=98-	=98-	=98-	=98-	=98-	=98-	=98-
*lig	*	*	*	*	*	*	*
1F	.	.	.	1D	.	.	.
.	.	4c\	.	.	.	4c\	.
.	.	2A/	.	.	.	2A/	.
!	!	!	!	!	!	!LO:LB:g=original	!
1D	.	2B\	.	2rF	.	2B/	.
.	.	4A\	.	2.d\	e-	4A/	.
.	.	4G\	.	.	.	4G/	.
*Xlig	*	*	*	*	*	*	*
=99-	=99-	=99-	=99-	=99-	=99-	=99-	=99-
*lig	*	*	*	*	*	*	*
1F	.	4A\	.	.	.	4A/	.
.	.	4B\	.	4e\	.	4B/	.
.	.	1c	.	4f\	.	1c	.
.	.	.	.	4e\	.	.	.
1G	.	.	.	4d\	.	.	.
.	.	.	.	4c\	.	.	.
.	.	2B\	.	2d\	.	2B/	.
*Xlig	*	*	*	*	*	*	*
=100-	=100-	=100-	=100-	=100-	=100-	=100-	=100-
1A	.	1c	.	1c	.	1c	cto
!	!	!LO:PB:g=original	!	!	!	!	!
*	*	*	*	*lig	*	*	*
1G	.	0r	.	1e	.	0r	.
=101-	=101-	=101-	=101-	=101-	=101-	=101-	=101-
1F	.	.	.	1d	.	.	.
*	*	*	*	*Xlig	*	*	*
1A	.	2r	.	1c	.	2re	.
.	.	1c\	e-	.	.	1c\	e-
!	!	!	!	!LO:LB:g=original	!	!	!
=102-	=102-	=102-	=102-	=102-	=102-	=102-	=102-
1G	.	.	.	1e	.	.	.
.	.	2B\	.	.	.	2B/	.
1F	.	1A	.	2d\	.	1A	.
.	.	.	.	1c\	.	.	.
=103-	=103-	=103-	=103-	=103-	=103-	=103-	=103-
2.G\	.	2G/	.	.	.	2G/	.
.	.	2.d\	.	2B\	.	2.d\	.
4F\	.	.	.	.	.	.	.
2D\	.	.	.	2A/	.	.	.
.	.	4c\	.	.	.	4c\	.
2F\	.	2A\	.	1d\	.	2A/	.
!LO:LB:g=original	!	!	!	!	!	!	!
=104-	=104-	=104-	=104-	=104-	=104-	=104-	=104-
1E	.	2B\	.	.	.	2B/	.
.	.	2c\	.	2c\	.	2c/	.
1D	-ius	2A/	.	2.d\	.	2A/	.
.	.	2.B/	.	.	.	2.B/	.
.	.	.	.	4c\	.	.	.
=105-	=105-	=105-	=105-	=105-	=105-	=105-	=105-
2r	.	.	.	2A\	.	.	.
.	.	4A\	.	.	.	4A/	.
2C/	e-	1A	.	2c\	.	1A	.
2D/	.	.	.	1B	.	.	.
2E/	.	2G/	.	.	.	2G/	.
=106-	=106-	=106-	=106-	=106-	=106-	=106-	=106-
2.F\	.	2A/	-ius	0A	ius	2A/	-ius
.	.	2.c\	in-	.	.	2.c/	in-
4E\	.	.	.	.	.	.	.
2C/	.	.	.	.	.	.	.
.	.	4B\	.	.	.	4B/	.
2D/	.	1A\	-no-	.	.	1A/	-no-
=107-	=107-	=107-	=107-	=107-	=107-	=107-	=107-
1BB	.	.	.	1r	.	.	.
*	*	*	*	*	*	*custos:A	*
.	.	2G/	-cens	.	.	2G/	-cens
!	!	!	!	!	!	!LO:LB:g=original	!
0AA	ius	4A\	.	1c	in-	2.A/	In-
.	.	4B\	.	.	.	.	.
.	.	4c\	.	.	.	.	.
.	.	4d\	.	.	.	4B/	-no-
=108-	=108-	=108-	=108-	=108-	=108-	=108-	=108-
.	.	4e\	.	1c	-no-	4c\	.
.	.	4f\	.	.	.	4d\	.
.	.	2.g\	.	.	.	4e\	.
.	.	.	.	.	.	4f\	.
*	*	*	*	*lig	*	*	*
0r	.	.	.	1c	-cens	2g\	.
.	.	4f\	.	.	.	.	.
.	.	2e\	.	.	.	2.a\	.
=109-	=109-	=109-	=109-	=109-	=109-	=109-	=109-
.	.	1d	.	1d	.	.	.
.	.	.	.	.	.	4g\	.
.	.	.	.	.	.	4f\	.
.	.	.	.	.	.	4e\	.
*	*	*	*	*Xlig	*	*	*
!	!	!LO:LB:g=original	!	!	!	!	!
*	*	*	*	*lig	*	*	*
2r	.	2rF	.	1d	ma-	2f\	-cens
2D/	ma-	2D/	ma-	.	.	2.g\	ma-
=110-	=110-	=110-	=110-	=110-	=110-	=110-	=110-
2G\	.	2G/	.	1c	.	.	.
.	.	.	.	.	.	4f\	.
2E\	.	2E/	.	.	.	1e	.
*	*	*	*	*Xlig	*	*	*
2C/	.	2C/	.	1B	.	.	.
2G\	.	2G/	.	.	.	2d\	.
=111-	=111-	=111-	=111-	=111-	=111-	=111-	=111-
2C/	.	2C/	.	1G	.	4e\	.
.	.	.	.	.	.	4d\	.
2E\	.	2E/	.	.	.	1g	.
*	*	*	*	*lig	*	*	*
1D	.	1D	.	1A	.	.	.
.	.	.	.	.	.	2f\	.
=112-	=112-	=112-	=112-	=112-	=112-	=112-	=112-
2.C/	.	2.C/	.	1c	.	2g\	.
.	.	.	.	.	.	2.G/	.
4D\	.	4D/	.	.	.	.	.
*	*	*	*	*Xlig	*	*	*
*	*	*	*	*lig	*	*	*
4E\	.	4E/	.	1B	.	.	.
4F\	.	4F/	.	.	.	4A/	.
4G\	.	4G/	.	.	.	4B/	.
4A\	.	4A/	.	.	.	4c/	.
=113-	=113-	=113-	=113-	=113-	=113-	=113-	=113-
1.G	.	4B\	.	1G	.	4d\	.
.	.	4c\	.	.	.	4G/	.
.	.	2d\	.	.	.	2g\	.
*	*	*	*	*Xlig	*	*	*
*	*	*	*	*lig	*	*	*
.	.	4c\	.	1A	.	2e\	.
.	.	4B\	.	.	.	.	.
2F\	.	4A\	.	.	.	2.c\	.
.	.	4G\	.	.	.	.	.
=114-	=114-	=114-	=114-	=114-	=114-	=114-	=114-
2E\	.	1A	.	1c	.	.	.
.	.	.	.	.	.	4d\	.
2A\	.	.	.	.	.	4e\	.
.	.	.	.	.	.	4f\	.
*	*	*	*	*Xlig	*	*	*
!	!	!	!	!	!	!LO:TX:t=P:problem=fragment nieczytelny [defekt źródła]	!
1G	ni-	2G/	.	1B	.	1ryy	.
.	.	1g\	.	.	.	.	.
!LO:LB:g=original	!	!	!	!LO:LB:g=original	!	!LO:PB:g=original	!
=115-	=115-	=115-	=115-	=115-	=115-	=115-	=115-
*	*	*	*	*lig	*	*	*
1D	-b(us)	.	.	1d	.	1a	.
.	.	2f\	.	.	.	.	.
*	*	*	*	*col	*	*	*
00r	.	2.g\	.	2.e\	.	2g\	.
.	.	.	.	.	.	1g\	.
*	*	*	*	*Xlig	*	*	*
.	.	4f\	.	4d\	.	.	.
*	*	*	*	*Xcol	*	*	*
=116-	=116-	=116-	=116-	=116-	=116-	=116-	=116-
.	.	2e\	.	2c\	.	.	.
.	.	2d\	-ni-	2B\	.	2g\	.
.	.	2.e\	-bus	2A/	.	2a\	.
.	.	.	.	1A\	.	4g\	.
.	.	4d\	.	.	.	4f\	.
=117-	=117-	=117-	=117-	=117-	=117-	=117-	=117-
.	.	4c\	.	.	.	2e\	.
.	.	4B\	.	.	.	.	.
.	.	2.A/	.	2.c\	.	2.f\	.
00r	.	.	.	.	.	.	.
.	.	4G/	.	4B\	.	4e\	.
!	!	!LO:LB:g=original	!	!	!	!	!
.	.	2F/	.	1A\	.	1d\	.
=118-	=118-	=118-	=118-	=118-	=118-	=118-	=118-
.	.	1E	.	.	.	.	.
.	.	.	.	2G/	-ni-	2c/	.
.	.	1D	.	1A	-b(us)	1d	.
=119-	=119-	=119-	=119-	=119-	=119-	=119-	=119-
*	*	*	*	*lig	*	*lig	*
.	.	1A	.	1c	.	1e	ni-
*	*	*lig	*	*	*	*	*
00r	.	1D	.	1A	.	1f	.
*	*	*	*	*Xlig	*	*Xlig	*
=120-	=120-	=120-	=120-	=120-	=120-	=120-	=120-
.	.	1A	.	0c	.	1e	-b(us)
*	*	*Xlig	*	*	*	*	*
.	.	2r	.	.	.	2re	.
.	.	2G/	ma-	.	.	1g\	Ma-
=121-	=121-	=121-	=121-	=121-	=121-	=121-	=121-
.	.	2g\	.	1B	.	.	.
.	.	4f\	.	.	.	4f\	.
.	.	4e\	.	.	.	4e\	.
1r	.	2f\	.	2A/	.	2f\	.
.	.	2g\	.	1c\	.	2g\	.
=122-	=122-	=122-	=122-	=122-	=122-	=122-	=122-
2c\	Ma-	2c\	.	.	.	2c/	.
4B\	.	1d	.	4B\	.	1d	.
4A\	.	.	.	4A\	.	.	.
2B\	.	.	.	2B\	.	.	.
2c\	.	4c\	.	2c\	.	4c/	.
.	.	4B\	.	.	.	4B/	.
=123-	=123-	=123-	=123-	=123-	=123-	=123-	=123-
2A\	.	2c\	.	2A/	.	2c/	.
1G	.	1G	.	1B	.	2d/	.
.	.	.	.	.	.	2G/	.
4F\	.	4F/	.	4A\	.	2g\	.
4E\	.	4E/	.	4G\	.	.	.
!	!	!	!	!	!	!LO:LB:g=original	!
=124-	=124-	=124-	=124-	=124-	=124-	=124-	=124-
2F\	.	2F/	.	2A/	.	2f\	.
2G\	.	2G/	.	2B/	.	2.d\	.
*lig	*	*lig	*	*lig	*	*	*
1D	-ni-	1D	-ni-	1F	.	.	.
.	.	.	.	.	.	4e\	.
.	.	.	.	.	.	1f\	.
=125-	=125-	=125-	=125-	=125-	=125-	=125-	=125-
1C	.	1C	.	1G	.	.	.
.	.	.	.	.	.	2e\	-ni-
*Xlig	*	*Xlig	*	*Xlig	*	*	*
!LO:TX:t=P:problem=kreska pseudotaktowa	!	!	!	!LO:TX:a:t=P:problem=rozdzielacz słów	!	!	!
1F	-b(us)	1c	-b(us)	1F,<	.	1f	-b(us)
=126-	=126-	=126-	=126-	=126-	=126-	=126-	=126-
*lig	*	*lig	*	*lig	*	*	*
1F	et	1A	et	1F	et	2.c/	et
.	.	.	.	.	.	4d\	.
1E	.	1B	.	1G	.	4e\	.
.	.	.	.	.	.	4f\	.
.	.	.	.	.	.	1g\	.
*Xlig	*	*Xlig	*	*Xlig	*	*	*
=127-	=127-	=127-	=127-	=127-	=127-	=127-	=127-
*lig	*	*	*	*	*	*	*
1D	.	1d	.	1A	.	.	.
.	.	.	.	.	.	2f\	.
!	!	!	!	!LO:LB:g=original	!	!	!
*	*	*lig	*	*	*	*	*
1C	.	1c	.	2G/	.	1e	.
.	.	.	.	1G/	.	.	.
*Xlig	*	*	*	*	*	*	*
=128-	=128-	=128-	=128-	=128-	=128-	=128-	=128-
*	*	*custos:A	*	*	*	*	*
0D	mun-	1B	.	.	.	1.d	.
.	.	.	.	4F/	.	.	.
.	.	.	.	4E/	.	.	.
*	*	*Xlig	*	*	*	*	*
!	!	!LO:LB:g=original	!	!	!	!	!
*	*	*lig	*	*	*	*	*
.	.	1A	mun-	1F	.	.	.
.	.	.	.	.	.	2f\	.
=129-	=129-	=129-	=129-	=129-	=129-	=129-	=129-
2C/	.	1c	.	2G/	.	2e\	.
1F	.	.	.	2A/	.	2c/	.
*	*	*Xlig	*	*	*	*	*
.	.	2B\	.	1G	mun-	2d\	.
2E\	.	2c\	.	.	.	2e\	.
=130-	=130-	=130-	=130-	=130-	=130-	=130-	=130-
1D	.	1d	.	1A	-do	1f	.
*	*	*	*	*lig	*	*	*
1C	.	2G/	-do	1c	cor-	1e	mun-
.	.	1g\	cor-	.	.	.	.
=131-	=131-	=131-	=131-	=131-	=131-	=131-	=131-
*lig	*	*	*	*	*	*lig	*
1D	-do	.	.	1A	.	1d	-do
.	.	2f\	.	.	.	.	.
*	*	*	*	*Xlig	*	*	*
*	*	*	*	*lig	*	*	*
1C	.	1e	.	1c	.	1G	.
*Xlig	*	*	*	*	*	*Xlig	*
=132-	=132-	=132-	=132-	=132-	=132-	=132-	=132-
1BB-X	Cor-	1d	.	1d	.	2r	.
.	.	.	.	.	.	2.d\	cor-
*	*	*	*	*Xlig	*	*	*
2GG/	.	1d	-de	2r	.	.	.
.	.	.	.	.	.	4B\	.
2BB-/	.	.	.	2G/	-de	4d\	.
.	.	.	.	.	.	4e\	.
=133-	=133-	=133-	=133-	=133-	=133-	=133-	=133-
2FF/	.	1c	mun-	2A/	.	2f\	.
2F\	.	.	.	2c\	.	2.F/	.
*	*	*lig	*	*	*	*	*
2D\	.	1d	-do	2B\	.	.	.
.	.	.	.	.	.	4G/	.
2F\	.	.	.	2A/	.	4A/	.
.	.	.	.	.	.	4B/	.
!LO:LB:g=original	!	!	!	!	!	!LO:LB:g=original	!
=134-	=134-	=134-	=134-	=134-	=134-	=134-	=134-
1C	-de	1e	.	1G	.	2.c/	.
.	.	.	.	.	.	4B/	.
*	*	*Xlig	*	*	*	*	*
2r	.	2g\	.	1c	.	1A	.
2F\	cor-	2f\	.	.	.	.	.
=135-	=135-	=135-	=135-	=135-	=135-	=135-	=135-
2G\	.	2d\	.	2B\	.	2G/	.
2E\	.	2e\	.	2c\	.	1c	.
1D	.	1f	.	1d	.	.	.
.	.	.	.	.	.	2B/	.
=136-	=136-	=136-	=136-	=136-	=136-	=136-	=136-
1C	-de	4e\	.	1G	et	1c	.
.	.	4f\	.	.	.	.	.
.	.	4g\	.	.	.	.	.
.	.	4e\	.	.	.	.	.
1r	.	4f\	.	2A/	mun-	2F/	.
.	.	4e\	.	.	.	.	.
.	.	4d\	.	[2c\	-do	2A/	.
.	.	4c\	.	.	.	.	.
=137-	=137-	=137-	=137-	=137-	=137-	=137-	=137-
1G	et	1d	.	2c\]	.	1G	-de
.	.	.	.	2B\	.	.	.
2A\	.	2c\	.	2c\	.	1rc	.
1G\	.	2B\	.	2e\	cor-	.	.
!	!	!LO:LB:g=original	!	!	!	!	!
=138-	=138-	=138-	=138-	=138-	=138-	=138-	=138-
.	.	4B\	.	2d\	.	1g	Cor-
.	.	4G/	.	.	.	.	.
2E\	mun-	2.c\	.	1c	.	.	.
2F\	.	.	.	.	.	2a\	.
.	.	4B\	.	.	.	.	.
!	!	!	!	!LO:LB:g=original	!	!	!
2C/	-do	2c\	.	2e\	.	2g\	.
=139-	=139-	=139-	=139-	=139-	=139-	=139-	=139-
4D\	.	0A	cor-	2d\	.	1f	.
4E\	.	.	.	.	.	.	.
4F\	.	.	.	1c	.	.	.
4G\	.	.	.	.	.	.	.
2A\	.	.	.	.	.	2e\	.
2F\	.	.	.	4B\	.	2f\	.
.	.	.	.	4A\	.	.	.
=140-	=140-	=140-	=140-	=140-	=140-	=140-	=140-
1E	.	1G	-de	2B\	.	2g\	.
.	.	.	.	2c\	.	2e\	.
1D	.	2A/	cor-	1d	.	2.f\	.
.	.	2.B/	.	.	.	.	.
.	.	.	.	.	.	4e\	.
=141-	=141-	=141-	=141-	=141-	=141-	=141-	=141-
*lig	*	*	*	*lig	*	*	*
1F	cor-	.	.	1A	.	2c/	.
.	.	4A/	.	.	.	.	.
.	.	1A	.	.	.	2d\	.
1E	.	.	.	1B	.	2.e\	.
.	.	2G/	.	.	.	.	.
.	.	.	.	.	.	4d\	.
*Xlig	*	*	*	*Xlig	*	*	*
=142-	=142-	=142-	=142-	=142-	=142-	=142-	=142-
2AA/	.	4A/	.	[0Al;;	-de	4e\	.
.	.	4G/	.	.	.	4c\	.
1D	.	4F/	.	.	.	2.f\	.
.	.	4E/	.	.	.	.	.
.	.	2D/	.	.	.	.	.
.	.	.	.	.	.	4e\	.
2C/	.	2E/	.	.	.	1e\	.
=143-	=143-	=143-	=143-	=143-	=143-	=143-	=143-
1D	.	1F	.	0A]	.	.	.
.	.	.	.	.	.	2d/	.
1AAl;;	-de	1El;;	-de	.	.	1el;;	-de.
==	==	==	==	==	==	==	==
*-	*-	*-	*-	*-	*-	*-	*-
!!!system-decoration: [s1,s2,s3,s4]
!!!RDF**kern: < = below
!!!RDF**kern: l = terminal long
!!!ENC: Marta Lawrence
!!!END: 2021-03-29
!!!ENC: Andrzej Kubiczek
!!!END: 2021-03-24
!!!YEC: Copyright 2022 Narodowy Instytut Fryderyka Chopina (https://polishscores.org)
!!!YEM: Licence CC BY 4.0 (https://creativecommons.org/licenses/by/4.0)
